X: 1
T: Elizabeth Adair
C: Angus Fitchet
R: Jig
K: C
Z: 2009 John Chambers <jc:trillian.mit.edu>
M: 6/8
L: 1/8
A \
| "C"G2E c2B | "F"A2F "Dm"d2c | "G7"Bcd GAB | "C"c2e "(G7)"g3 \
| "C"G2E c2B | "F"A2F "Dm"d2c | "G7"Bcd GAB | "C"c3 c2 :|
f \
| "C"e2f gfe | "Dm"fef d2f | "C"ege cde | "G7"dBG G2f \
| "C"e2f gfe | "Dm"faf d2c | "G7"Bcd GAB | "C"c3 c2 |]
f \
| "C"e2f gfe | "Dm"fef "G7"d2f | "C"ege "Am"cde | "G7"dBG G2f \
| "C"efg "F"fga | "C"gfe "D7"d2c | "G7"Bcd GAB | "C"c3 c2 |]
